src/next/cmd/lc_helplinesmove.svg

<svg height="24" viewBox="0 0 6.3499999 6.3500002" width="24" xmlns="http://www.w3.org/2000/svg" xmlns:xlink="http://www.w3.org/1999/xlink"><radialGradient id="a" cx="136.49431672747" cy="139.64728836493" gradientUnits="userSpaceOnUse" r="135.18755290053"><stop offset="0" stop-color="#3e3e3e"/><stop offset=".0151" stop-color="#505050"/><stop offset=".0558" stop-color="#7e7e7e"/><stop offset=".1357" stop-color="#c6c6c6"/><stop offset=".20990001" stop-color="#f1f1f1"/><stop offset=".24349999" stop-color="#fcfcfc"/><stop offset=".2722" stop-color="#fff"/></radialGradient><filter id="b"><feGaussianBlur stdDeviation=".50063244"/></filter><filter id="c"><feGaussianBlur stdDeviation="1.0394514"/></filter><radialGradient id="d" cx="29.227722" cy="293.82623" gradientTransform="matrix(2.4560291 .08983152 -.088838 2.428866 -16.453481 -420.01624)" gradientUnits="userSpaceOnUse" r="11.288881"><stop offset="0" stop-color="#c3c5c6"/><stop offset=".11366145" stop-color="#e5e5e5"/><stop offset=".20296688" stop-color="#ececec"/><stop offset=".2363" stop-color="#fafafa"/><stop offset=".2722" stop-color="#fff"/><stop offset=".5313" stop-color="#fafafa"/><stop offset=".8449" stop-color="#ebecec"/><stop offset="1" stop-color="#e1e2e3"/></radialGradient><g transform="matrix(.1875 0 0 .1875 0 -49.33749)"><path d="m21.480526 7.7313758.04082 115.7280242 98.353984.0412c.375-.375.586-.884.586-1.414v-114.3552542h-98.9808z" filter="url(#c)" opacity=".333" transform="matrix(.26697567 0 0 .26545011 -2.014228 263.38225)"/><path d="m21.480526 7.7625933.04082 115.6968067 98.353984.0412c.375-.375.586-.884.586-1.414v-114.3240567z" filter="url(#c)" opacity=".306849" transform="matrix(.26697567 0 0 .26545011 -2.014228 263.38225)"/><path d="m21.480526 8.7281105.04082 114.7312895 98.353984.0412c.375-.375.586-.884.586-1.414v-113.3585195h-98.9808z" filter="url(#c)" opacity=".306849" transform="matrix(.26697567 0 0 .26545011 -2.014228 263.38225)"/><path d="m23.400525 9.6937293v111.6353907l94.554805-.0928c.375-.375.586-.884.586-1.414v-110.1285107h-95.140805z" filter="url(#b)" opacity=".89589" transform="matrix(.26697567 0 0 .26545011 -2.014228 263.38225)"/><path d="m15.99999 10.666743v111.999927l90.66791-.002v.002h4.76562.56641v-1.36915-9.29882-101.331957z" fill="url(#a)" transform="matrix(.26458333 0 0 .26458333 0 263.13332)"/><rect fill="url(#d)" height="26.811092" rx=".11693" ry=".167043" width="22.577763" x="5.644441" y="267.36667"/><g fill-rule="evenodd"><path d="m8.4666612 265.95556v29.63332h.6947265v-29.63332z" fill="#258aff" fill-opacity=".454902"/><path d="m8.4666612 274.14276v12.55461h.8346712v-12.55461z" fill="#042cff"/><path d="m29.654191 285.71111h-25.4208604v.69473h25.4208604z" fill="#258aff" fill-opacity=".454902"/><path d="m23.988873 265.95556v29.63332h.694726v-29.63332z" fill="#258aff" fill-opacity=".454902"/><path d="m29.654191 273.72749h-25.4208604v.69473h25.4208604z" fill="#258aff" fill-opacity=".454902"/><path d="m23.843725 273.72749v12.79451h.834671v-12.79451z" fill="#042cff"/><path d="m8.4666612 273.59267h16.2169378v.82955h-16.2169378z" fill="#042cff"/><path d="m8.4064991 285.71111h16.2720309v.82956h-16.2720309z" fill="#042cff"/></g></g></svg>

<?xml version="1.0" encoding="UTF-8" standalone="no"?>
<!-- Created with Inkscape (http://www.inkscape.org/) -->

<svg
   xmlns:dc="http://purl.org/dc/elements/1.1/"
   xmlns:cc="http://creativecommons.org/ns#"
   xmlns:rdf="http://www.w3.org/1999/02/22-rdf-syntax-ns#"
   xmlns:svg="http://www.w3.org/2000/svg"
   xmlns="http://www.w3.org/2000/svg"
   xmlns:xlink="http://www.w3.org/1999/xlink"
   xmlns:sodipodi="http://sodipodi.sourceforge.net/DTD/sodipodi-0.dtd"
   xmlns:inkscape="http://www.inkscape.org/namespaces/inkscape"
   width="24"
   height="24"
   viewBox="0 0 6.3499999 6.3500002"
   version="1.1"
   id="svg8"
   inkscape:version="0.92.4 (unknown)"
   sodipodi:docname="lc_helplinesmove.svg"
   inkscape:export-filename="/home/rizmut/Dokumen/Rizmut/Github/libreoffice-style-karasa-jaga/build/next/cmd/lc_helplinesmove.png"
   inkscape:export-xdpi="18"
   inkscape:export-ydpi="18">
  <defs
     id="defs2">
    <radialGradient
       gradientUnits="userSpaceOnUse"
       gradientTransform="matrix(0.9792,0,0,0.9725,133.0002,20.8762)"
       r="55.147999"
       cy="-0.2148"
       cx="48"
       id="XMLID_4_">
      <stop
         id="stop3082"
         style="stop-color:#72D13D"
         offset="0" />
      <stop
         id="stop3084"
         style="stop-color:#35AC1C"
         offset="0.3553" />
      <stop
         id="stop3086"
         style="stop-color:#0F9508"
         offset="0.6194" />
      <stop
         id="stop3088"
         style="stop-color:#008C00"
         offset="0.7574" />
      <stop
         id="stop3090"
         style="stop-color:#007A00"
         offset="1" />
    </radialGradient>
    <radialGradient
       gradientUnits="userSpaceOnUse"
       gradientTransform="matrix(0.9792,0,0,0.9725,133.0002,20.8762)"
       r="55.147999"
       cy="-0.2148"
       cx="48"
       id="radialGradient230">
      <stop
         id="stop220"
         style="stop-color:#72D13D"
         offset="0" />
      <stop
         id="stop222"
         style="stop-color:#35AC1C"
         offset="0.3553" />
      <stop
         id="stop224"
         style="stop-color:#0F9508"
         offset="0.6194" />
      <stop
         id="stop226"
         style="stop-color:#008C00"
         offset="0.7574" />
      <stop
         id="stop228"
         style="stop-color:#007A00"
         offset="1" />
    </radialGradient>
    <radialGradient
       gradientUnits="userSpaceOnUse"
       r="139.55859"
       cy="112.3047"
       cx="102"
       id="radialGradient3804">
      <stop
         id="stop3806"
         style="stop-color:#c3c5c6;stop-opacity:1"
         offset="0" />
      <stop
         id="stop3808"
         style="stop-color:#e5e5e5;stop-opacity:1"
         offset="0.11366145" />
      <stop
         id="stop3810"
         style="stop-color:#ECECEC"
         offset="0.20296688" />
      <stop
         id="stop3812"
         style="stop-color:#FAFAFA"
         offset="0.2363" />
      <stop
         id="stop3814"
         style="stop-color:#FFFFFF"
         offset="0.2722" />
      <stop
         id="stop3816"
         style="stop-color:#FAFAFA"
         offset="0.5313" />
      <stop
         id="stop3818"
         style="stop-color:#EBECEC"
         offset="0.8449" />
      <stop
         id="stop3820"
         style="stop-color:#E1E2E3"
         offset="1" />
    </radialGradient>
    <radialGradient
       inkscape:collect="always"
       xlink:href="#XMLID_7_"
       id="radialGradient2275"
       gradientUnits="userSpaceOnUse"
       gradientTransform="matrix(0.96868018,0,0,0.96868018,2.0336129,4.1583496)"
       cx="138.80815"
       cy="139.86963"
       r="139.5585"
       fx="138.80815"
       fy="139.86963" />
    <radialGradient
       id="XMLID_7_"
       cx="102"
       cy="112.3047"
       r="139.5585"
       gradientUnits="userSpaceOnUse">
      <stop
         offset="0"
         style="stop-color:#3e3e3e;stop-opacity:1;"
         id="stop16" />
      <stop
         offset="0.0151"
         style="stop-color:#505050;stop-opacity:1;"
         id="stop18" />
      <stop
         offset="0.0558"
         style="stop-color:#7e7e7e;stop-opacity:1;"
         id="stop20" />
      <stop
         offset="0.1357"
         style="stop-color:#c6c6c6;stop-opacity:1;"
         id="stop24" />
      <stop
         offset="0.20990001"
         style="stop-color:#f1f1f1;stop-opacity:1;"
         id="stop28" />
      <stop
         offset="0.24349999"
         style="stop-color:#fcfcfc;stop-opacity:1;"
         id="stop30" />
      <stop
         offset="0.2722"
         style="stop-color:#FFFFFF"
         id="stop32" />
    </radialGradient>
    <filter
       inkscape:collect="always"
       id="filter3772">
      <feGaussianBlur
         inkscape:collect="always"
         stdDeviation="0.50063244"
         id="feGaussianBlur3774" />
    </filter>
    <filter
       inkscape:collect="always"
       id="filter3241">
      <feGaussianBlur
         inkscape:collect="always"
         stdDeviation="1.0394514"
         id="feGaussianBlur3243" />
    </filter>
    <radialGradient
       gradientUnits="userSpaceOnUse"
       r="139.55859"
       cy="112.3047"
       cx="102"
       id="radialGradient3804-6">
      <stop
         id="stop3806-7"
         style="stop-color:#c3c5c6;stop-opacity:1"
         offset="0" />
      <stop
         id="stop3808-5"
         style="stop-color:#e5e5e5;stop-opacity:1"
         offset="0.11366145" />
      <stop
         id="stop3810-3"
         style="stop-color:#ECECEC"
         offset="0.20296688" />
      <stop
         id="stop3812-5"
         style="stop-color:#FAFAFA"
         offset="0.2363" />
      <stop
         id="stop3814-6"
         style="stop-color:#FFFFFF"
         offset="0.2722" />
      <stop
         id="stop3816-2"
         style="stop-color:#FAFAFA"
         offset="0.5313" />
      <stop
         id="stop3818-9"
         style="stop-color:#EBECEC"
         offset="0.8449" />
      <stop
         id="stop3820-1"
         style="stop-color:#E1E2E3"
         offset="1" />
    </radialGradient>
    <radialGradient
       inkscape:collect="always"
       xlink:href="#radialGradient3804"
       id="radialGradient2006"
       cx="29.227722"
       cy="293.82623"
       fx="29.227722"
       fy="293.82623"
       r="11.288881"
       gradientTransform="matrix(2.4560291,0.08983152,-0.088838,2.428866,-16.453481,-420.01624)"
       gradientUnits="userSpaceOnUse" />
  </defs>
  <sodipodi:namedview
     id="base"
     pagecolor="#ffffff"
     bordercolor="#666666"
     borderopacity="1.0"
     inkscape:pageopacity="0.0"
     inkscape:pageshadow="2"
     inkscape:zoom="7.9195959"
     inkscape:cx="22.409643"
     inkscape:cy="12.087747"
     inkscape:document-units="mm"
     inkscape:current-layer="layer1"
     showgrid="true"
     units="px"
     inkscape:window-width="1366"
     inkscape:window-height="706"
     inkscape:window-x="0"
     inkscape:window-y="0"
     inkscape:window-maximized="1"
     inkscape:snap-global="true"
     inkscape:lockguides="false">
    <inkscape:grid
       type="xygrid"
       id="grid883"
       spacingx="0.13229167"
       spacingy="0.13229167"
       empspacing="1" />
  </sodipodi:namedview>
  <metadata
     id="metadata5">
    <rdf:RDF>
      <cc:Work
         rdf:about="">
        <dc:format>image/svg+xml</dc:format>
        <dc:type
           rdf:resource="http://purl.org/dc/dcmitype/StillImage" />
        <dc:title></dc:title>
      </cc:Work>
    </rdf:RDF>
  </metadata>
  <g
     inkscape:label="Layer 1"
     inkscape:groupmode="layer"
     id="layer1"
     transform="translate(0,-290.64999)">
    <g
       id="g4822"
       transform="matrix(0.1875,0,0,0.1875,0,241.3125)">
      <g
         id="g2851">
        <path
           inkscape:connector-curvature="0"
           sodipodi:nodetypes="ccccccc"
           transform="matrix(0.26697567,0,0,0.26545011,-2.0142278,263.38225)"
           style="opacity:0.33300003;fill:#000000;fill-opacity:1;filter:url(#filter3241)"
           d="m 21.480526,7.7313758 0.04082,115.7280242 98.353984,0.0412 c 0.375,-0.375 0.586,-0.884 0.586,-1.414 V 7.7313458 h -98.9808 z"
           id="path4253" />
        <path
           inkscape:connector-curvature="0"
           sodipodi:nodetypes="cccccc"
           transform="matrix(0.26697567,0,0,0.26545011,-2.0142278,263.38225)"
           style="opacity:0.30684934;fill:#000000;fill-opacity:1;filter:url(#filter3241)"
           d="m 21.480526,7.7625933 0.04082,115.6968067 98.353984,0.0412 c 0.375,-0.375 0.586,-0.884 0.586,-1.414 V 7.7625433 Z"
           id="path4081" />
        <path
           inkscape:connector-curvature="0"
           id="path6594"
           d="m 21.480526,8.7281105 0.04082,114.7312895 98.353984,0.0412 c 0.375,-0.375 0.586,-0.884 0.586,-1.414 V 8.7280805 h -98.9808 z"
           style="opacity:0.30684934;fill:#000000;fill-opacity:1;filter:url(#filter3241)"
           transform="matrix(0.26697567,0,0,0.26545011,-2.0142278,263.38225)"
           sodipodi:nodetypes="ccccccc" />
        <path
           inkscape:connector-curvature="0"
           sodipodi:nodetypes="ccccccc"
           transform="matrix(0.26697567,0,0,0.26545011,-2.0142278,263.38225)"
           style="opacity:0.89589042;fill:#000000;fill-opacity:1;filter:url(#filter3772)"
           d="M 23.400525,9.6937293 V 121.32912 l 94.554805,-0.0928 c 0.375,-0.375 0.586,-0.884 0.586,-1.414 V 9.6938093 H 23.400525 Z"
           id="path3726" />
        <path
           style="fill:url(#radialGradient2275);stroke-width:0.99999994"
           d="M 15.99999,10.666743 V 122.66667 l 90.66791,-0.002 v 0.002 h 4.76562 0.56641 V 121.29752 111.9987 10.666743 Z"
           transform="matrix(0.26458333,0,0,0.26458333,0,263.13332)"
           id="path34"
           inkscape:connector-curvature="0"
           sodipodi:nodetypes="cccccccccc" />
        <rect
           style="opacity:1;fill:url(#radialGradient2006);fill-opacity:1;stroke:none;stroke-width:0.30000001;stroke-linecap:round;stroke-linejoin:round;stroke-miterlimit:4;stroke-dasharray:none;stroke-dashoffset:0;stroke-opacity:1"
           id="rect1104"
           width="22.577763"
           height="26.811092"
           x="5.6444407"
           y="267.36667"
           ry="0.16704346"
           rx="0.11693042" />
      </g>
      <path
         style="fill:#258aff;fill-opacity:0.45490196;fill-rule:evenodd;stroke:none;stroke-width:0.29563794"
         d="m 8.4666612,265.95556 v 29.63332 h 0.6947265 v -29.63332 z"
         id="path1031"
         inkscape:connector-curvature="0" />
      <path
         inkscape:connector-curvature="0"
         id="path3482"
         d="m 8.4666612,274.14276 v 12.55461 h 0.8346712 v -12.55461 z"
         style="fill:#042cff;fill-opacity:1;fill-rule:evenodd;stroke:none;stroke-width:0.18105467" />
      <path
         style="fill:#258aff;fill-opacity:0.45490196;fill-rule:evenodd;stroke:none;stroke-width:0.27382001"
         d="M 29.654191,285.71111 H 4.2333306 v 0.69473 H 29.654191 Z"
         id="path974"
         inkscape:connector-curvature="0" />
      <path
         inkscape:connector-curvature="0"
         id="path970"
         d="m 23.988873,265.95556 v 29.63332 h 0.694726 v -29.63332 z"
         style="fill:#258aff;fill-opacity:0.45490196;fill-rule:evenodd;stroke:none;stroke-width:0.29563794" />
      <path
         inkscape:connector-curvature="0"
         id="path972"
         d="M 29.654191,273.72749 H 4.2333306 v 0.69473 H 29.654191 Z"
         style="fill:#258aff;fill-opacity:0.45490196;fill-rule:evenodd;stroke:none;stroke-width:0.27382001" />
      <path
         style="fill:#042cff;fill-opacity:1;fill-rule:evenodd;stroke:none;stroke-width:0.18277636"
         d="M 23.843725,273.72749 V 286.522 h 0.834671 v -12.79451 z"
         id="path939"
         inkscape:connector-curvature="0" />
      <path
         inkscape:connector-curvature="0"
         id="path941"
         d="M 8.4666612,273.59267 H 24.683599 v 0.82955 H 8.4666612 Z"
         style="fill:#042cff;fill-opacity:1;fill-rule:evenodd;stroke:none;stroke-width:0.29950351" />
      <path
         inkscape:connector-curvature="0"
         style="fill:#042cff;fill-opacity:1;fill-rule:evenodd;stroke:none;stroke-width:0.30001178"
         d="M 8.4064991,285.71111 H 24.67853 v 0.82956 H 8.4064991 Z"
         id="path3111" />
    </g>
  </g>
</svg>
